shader_type canvas_item;

uniform float flash_strength : hint_range(0.0, 1.0) = 0.0;
uniform vec4 flash_color : source_color = vec4(1.0, 1.0, 1.0, 1.0);

void fragment() {
    vec4 tex = texture(TEXTURE, UV);
    vec4 flash = vec4(flash_color.rgb, tex.a);
    COLOR = mix(tex, flash, flash_strength);
}
